Adwaita++-Dark/apps/16/gnupg.svg

<svg height="16" viewBox="0 0 16 16" width="16" xmlns="http://www.w3.org/2000/svg">
  <path d="m7.9879117.50052976c-2.7024906 0-4.8781416 2.17568494-4.8781416 4.87812274v2.4390802h-.6097701v3.4680563l.2477102-.323906c.3544819-.476031 1.2992995-1.1560054 2.0389115-1.4481629.3896617-.1542047 1.3252686-.3227716 2.3819074-.438274 1.5920125-.1791496 4.5998629-.0381732 5.6975219-1.2576756v-2.4390802c0-2.7024378-2.175652-4.87812275-4.8781468-4.87812275zm.4001613.59074014c.2311937.0151181.4578141.0404409.685988.0952441.8197566.1969134.9123096.3867591.1143307.2286614-1.2555061-.2486929-2.9230828.3099213-3.9444358 1.3338708-.3053859.3061417-.6907011.8131275-.8574879 1.124296-.3436346.6411591-.2895874.2282835.076233-.5526425.6687987-1.4275652 2.3069555-2.32388018 3.9253832-2.2294298zm-.4001613 1.8483401c1.3512491 0 2.4390733 1.0878236 2.4390733 2.4390425v2.4390802h-4.8781422v-2.4390802c0-1.3512189 1.0878236-2.4390425 2.4390689-2.4390425zm5.4879163 5.9490519-.647879.5335181c-.352139.2997165-.90322.709757-1.238593.914645-.686374.41949-2.3136723 1.009927-2.8011218 1.009927-.1833448 0-.2908346.04422-.2477102.11452.08126.131906 1.0555313.07219 2.077025-.133417.335357-.06765 1.113585-.371906 1.734025-.685984l1.124262-.571653v-.5907026zm0 1.3147841-.342992.476409c-1.137653 1.568126-2.990162 2.437039-5.5641343 2.591508-1.7192315.103182-1.0897777.298583.9718185.30463 1.3965394.0017 1.7113218-.04044 2.5534038-.323905.526821-.17726.96429-.312567.990875-.28611.09592.096-.934749.948963-1.505367 1.238589-1.0933156.55491-1.8378031.710702-3.8110491.800315-1.4017398.06387-1.9772182.136063-2.2485203.285732-.3454488.19011-.1172031.203338 4.2874318.209386h4.6685376z" fill="#e6ddff"/>
</svg>

<svg xmlns="http://www.w3.org/2000/svg" width="16" height="16" x="0" y="0" version="1.1" viewBox="0 0 16 16" xml:space="preserve">
 <path fill="#E6DDFF" d="m 7.9879117,0.50052976 c -2.7024906,0 -4.8781416,2.17568494 -4.8781416,4.87812274 V 7.8177327 H 2.5 V 11.285789 L 2.7477102,10.961883 C 3.1021921,10.485852 4.0470097,9.8058776 4.7866217,9.5137201 5.1762834,9.3595154 6.1118903,9.1909485 7.1685291,9.0754461 8.7605416,8.8962965 11.768392,9.0372729 12.866051,7.8177705 V 5.3786903 c 0,-2.7024378 -2.175652,-4.87812275 -4.8781468,-4.87812275 z M 8.388073,1.0912699 C 8.6192667,1.106388 8.8458871,1.1317108 9.074061,1.186514 9.8938176,1.3834274 9.9863706,1.5732731 9.1883917,1.4151754 7.9328856,1.1664825 6.2653089,1.7250967 5.2439559,2.7490462 4.93857,3.0551879 4.5532548,3.5621737 4.386468,3.8733422 4.0428334,4.5145013 4.0968806,4.1016257 4.462701,3.3206997 5.1314997,1.8931345 6.7696565,0.99681952 8.3880842,1.0912699 Z M 7.9879117,2.93961 c 1.3512491,0 2.4390733,1.0878236 2.4390733,2.4390425 V 7.8177327 H 5.5488428 V 5.3786525 c 0,-1.3512189 1.0878236,-2.4390425 2.4390689,-2.4390425 z M 13.475828,8.8886619 12.827949,9.42218 c -0.352139,0.2997165 -0.90322,0.709757 -1.238593,0.914645 -0.686374,0.41949 -2.3136723,1.009927 -2.8011218,1.009927 -0.1833448,0 -0.2908346,0.04422 -0.2477102,0.11452 0.08126,0.131906 1.0555313,0.07219 2.077025,-0.133417 0.335357,-0.06765 1.113585,-0.371906 1.734025,-0.685984 l 1.124262,-0.571653 V 9.4795154 Z m 0,1.3147841 -0.342992,0.476409 c -1.137653,1.568126 -2.990162,2.437039 -5.5641343,2.591508 -1.7192315,0.103182 -1.0897777,0.298583 0.9718185,0.30463 1.3965394,0.0017 1.7113218,-0.04044 2.5534038,-0.323905 0.526821,-0.17726 0.96429,-0.312567 0.990875,-0.28611 0.09592,0.096 -0.934749,0.948963 -1.505367,1.238589 -1.0933156,0.55491 -1.8378031,0.710702 -3.8110491,0.800315 -1.4017398,0.06387 -1.9772182,0.136063 -2.2485203,0.285732 C 4.1744138,15.480724 4.4026595,15.493952 8.8072944,15.5 h 4.6685376 z"/>
</svg>
